assets/img/img-pages/fran/sale.svg

<svg width="82" height="82" viewBox="0 0 82 82" fill="none" xmlns="http://www.w3.org/2000/svg">
<path fill-rule="evenodd" clip-rule="evenodd" d="M67.1944 39.2891C70.4695 40.2773 72.1631 41.6483 72.2378 43.3652C72.2502 43.4393 72.2502 43.5258 72.2502 43.5999V57.1622C72.2502 59.3732 69.548 60.6702 67.2941 61.3619C64.542 62.2141 60.9183 62.6835 57.0829 62.6835C50.1218 62.6835 42.6502 61.1148 42.0151 57.6934C39.1137 57.6687 36.3741 57.3722 34.0454 56.8287C31.393 58.978 28.0806 60.139 24.6561 60.139C16.4373 60.139 9.75024 53.5061 9.75024 45.3539C9.75024 44.4275 9.83741 43.5134 10.0118 42.5994C11.5434 34.583 19.3513 29.3088 27.4455 30.8404L27.3085 25.208C27.2836 25.0721 27.2712 24.9363 27.2712 24.8004C27.2712 22.5894 29.9734 21.3048 32.2273 20.6131C34.9794 19.7732 38.6031 19.3162 42.4385 19.3162C46.2864 19.3162 49.9475 19.7732 52.7493 20.6131C55.7255 21.5024 57.4066 22.7129 57.7553 24.2075C57.8674 24.3928 57.9297 24.6028 57.9421 24.8251V38.0045C61.4289 38.0786 64.6541 38.5356 67.1944 39.2891ZM52.0395 33.4837C54.7418 32.6685 55.3395 31.8162 55.3395 31.6557C55.3395 31.6423 55.3394 31.629 55.3393 31.6158C55.3385 31.4578 55.3376 31.3088 55.464 31.1492V27.913C54.6048 28.3577 53.6957 28.7159 52.7618 28.9877C49.9599 29.8276 46.2864 30.2846 42.451 30.2846C38.7774 30.2846 35.2782 29.8646 32.576 29.0865C31.6421 28.8394 30.7455 28.4936 29.8862 28.0613L29.9734 31.5445C31.3805 32.0633 32.6881 32.8044 33.8711 33.7308C33.8898 33.7369 33.9053 33.74 33.9209 33.7431C33.9365 33.7462 33.952 33.7493 33.9707 33.7555C36.3616 34.3607 39.3752 34.6819 42.451 34.6819C46.0124 34.6819 49.5116 34.2372 52.0395 33.4837ZM42.4385 21.7989C38.8522 21.7989 35.4899 22.2312 32.9745 22.997C30.347 23.7875 29.7742 24.5781 29.7617 24.8127C29.7617 24.8127 29.7742 24.8127 29.7742 24.8374C29.8364 25.1092 30.5836 25.9491 33.2609 26.7149C35.739 27.4313 39.0016 27.8266 42.4385 27.8266C46 27.8266 49.4867 27.3943 52.0146 26.6408C54.7169 25.8379 55.327 24.9857 55.327 24.8127C55.327 24.6522 54.7293 23.8122 52.0271 22.997C49.4992 22.2312 46 21.7989 42.4385 21.7989ZM15.4785 53.6543C20.086 58.6815 27.9436 59.0397 33.0118 54.4695C35.602 52.135 37.0839 48.8371 37.0714 45.3662C37.0714 44.5386 36.9842 43.6987 36.8224 42.8835C35.9009 38.4986 32.6507 34.9413 28.3296 33.6073C27.1342 33.2491 25.9014 33.0638 24.6561 33.0638C21.5678 33.0638 18.5792 34.2001 16.3004 36.2629C11.2321 40.8331 10.871 48.6271 15.4785 53.6543ZM38.5657 50.6775C37.9929 52.1474 37.1835 53.5184 36.1748 54.7413C38.0801 55.0501 40.0103 55.223 41.9404 55.2477L41.8657 51.0604V50.8381C40.7201 50.8257 39.6242 50.764 38.5657 50.6775ZM41.7536 43.9828C40.9816 43.9705 40.2219 43.9458 39.4997 43.8963C39.5371 44.3904 39.562 44.8721 39.562 45.3539C39.562 46.3173 39.4623 47.2931 39.2755 48.2442C40.0974 48.306 40.9567 48.343 41.8283 48.3554L41.7536 43.9828ZM42.4385 41.5248H42.563C44.6053 39.3015 50.0969 38.1898 55.4391 38.0416V34.8054C54.5799 35.2377 53.6833 35.5959 52.7493 35.8676C49.9475 36.7076 46.2739 37.1646 42.4261 37.1646C40.5333 37.1646 38.6529 37.0411 36.785 36.8064C37.7937 38.1898 38.5408 39.7461 39.014 41.4013C40.085 41.4754 41.2431 41.5248 42.4385 41.5248ZM44.2068 43.4887V43.4887C44.2068 43.4887 44.2068 43.4887 44.2317 43.5381C44.3064 43.7975 45.0411 44.6498 47.7185 45.4156C50.1965 46.1197 53.4591 46.5149 56.8961 46.5149C60.4451 46.5149 63.8073 46.1073 66.3601 45.3539C69.1246 44.5386 69.7472 43.6864 69.7597 43.5011V43.4887C69.7472 43.3035 69.1246 42.4882 66.4722 41.6977C63.9318 40.9319 60.4451 40.5243 56.8836 40.5243H56.6719C53.3595 40.5243 50.209 40.8948 47.7932 41.5742C45.2155 42.2906 44.3313 43.1058 44.2193 43.4393C44.2068 43.464 44.2068 43.4764 44.2068 43.4887ZM57.0953 60.2255C60.6817 60.2255 64.0564 59.7932 66.5718 59.015C69.1993 58.1998 69.7722 57.3475 69.7722 57.1746H69.7597V53.469C68.9254 53.889 68.0537 54.2472 67.1446 54.5189C64.3552 55.3589 60.7066 55.8159 56.8587 55.8159C53.4467 55.8159 50.1218 55.433 47.5068 54.7536C46.4358 54.4819 45.4023 54.1113 44.406 53.6296L44.4683 57.2116V57.2363C44.4683 57.4216 45.0162 58.2492 47.6437 59.0521C50.1343 59.8055 53.4965 60.2255 57.0953 60.2255ZM69.7722 49.924H69.7846V46.6385C68.9129 47.0831 68.0039 47.4413 67.0575 47.7007C64.2805 48.5159 60.6692 48.9606 56.8836 48.9606C53.2101 48.9606 49.7109 48.5406 47.0087 47.7625C46.0747 47.5031 45.1657 47.1572 44.294 46.7249L44.3438 49.5658L44.3562 50.6034C45.3275 51.8015 49.9724 53.3455 56.8712 53.3455C60.47 53.3455 63.8696 52.9255 66.4224 52.1597C69.1122 51.3445 69.6974 50.5046 69.6974 50.3317C69.6974 50.2621 69.717 50.1893 69.7361 50.1183C69.7544 50.0505 69.7722 49.9843 69.7722 49.924ZM24.6561 43.7111C26.7606 43.7111 28.6161 45.0945 29.1889 47.1078C29.8987 49.5906 28.4417 52.1598 25.9387 52.8638V53.9508C25.9387 54.6301 25.3784 55.186 24.6935 55.186C24.0086 55.186 23.4482 54.6301 23.4482 53.9508V52.8762C21.3935 52.3203 19.9739 50.4799 19.9614 48.3677C19.9614 47.6884 20.5218 47.1326 21.2067 47.1326C21.8916 47.1326 22.452 47.6884 22.452 48.3677C22.452 49.5782 23.4482 50.554 24.6686 50.554C25.8889 50.554 26.8727 49.5659 26.8727 48.3554C26.8727 47.1449 25.8765 46.1691 24.6561 46.1691C22.5267 46.1691 20.6712 44.7486 20.1233 42.7106C19.4509 40.2279 20.9452 37.671 23.4482 37.004V36.4729C23.4482 35.7935 24.0086 35.2377 24.6935 35.2377C25.3784 35.2377 25.9387 35.7935 25.9387 36.4729V37.0287C27.9685 37.5969 29.3632 39.4373 29.3632 41.5248C29.3632 42.2042 28.8028 42.76 28.1179 42.76C27.4331 42.76 26.8727 42.2042 26.8727 41.5248C26.8727 40.3143 25.8765 39.3262 24.6561 39.3262C23.4357 39.3262 22.452 40.302 22.4395 41.5248C22.4395 42.7353 23.4357 43.7111 24.6561 43.7111Z" fill="#1D3557"/>
</svg>

<svg width="82" height="82" fill="none" xmlns="http://www.w3.org/2000/svg"><path fill-rule="evenodd" clip-rule="evenodd" d="M67.194 39.29c3.275.987 4.97 2.358 5.044 4.075.012.074.012.16.012.235v13.562c0 2.211-2.702 3.508-4.956 4.2-2.752.852-6.376 1.322-10.211 1.322-6.961 0-14.433-1.57-15.068-4.99-2.901-.025-5.64-.322-7.97-.865a14.895 14.895 0 0 1-9.389 3.31c-8.219 0-14.906-6.633-14.906-14.785 0-.926.087-1.84.262-2.755 1.531-8.016 9.34-13.29 17.434-11.759l-.138-5.632a2.257 2.257 0 0 1-.037-.408c0-2.21 2.702-3.495 4.956-4.187 2.752-.84 6.376-1.297 10.212-1.297 3.847 0 7.508.457 10.31 1.297 2.976.89 4.658 2.1 5.006 3.595.112.185.175.395.187.617v13.18c3.487.074 6.712.53 9.252 1.284ZM52.04 33.483c2.703-.816 3.3-1.668 3.3-1.828v-.04c0-.158-.001-.307.125-.467v-3.236c-.86.445-1.768.803-2.702 1.075-2.802.84-6.476 1.297-10.311 1.297-3.674 0-7.173-.42-9.875-1.198a13.873 13.873 0 0 1-2.69-1.026l.087 3.483a14.4 14.4 0 0 1 3.898 2.187c.019.006.034.009.05.012a.388.388 0 0 1 .05.012c2.39.606 5.404.927 8.48.927 3.561 0 7.06-.445 9.588-1.198Zm-9.6-11.685c-3.587 0-6.95.432-9.465 1.198-2.627.79-3.2 1.581-3.212 1.816 0 0 .012 0 .012.024.062.272.81 1.112 3.487 1.878 2.478.716 5.74 1.112 9.177 1.112 3.562 0 7.049-.433 9.577-1.186 2.702-.803 3.312-1.655 3.312-1.828 0-.16-.598-1-3.3-1.816-2.528-.766-6.027-1.198-9.589-1.198Zm-26.96 31.855c4.607 5.027 12.465 5.386 17.533.815 2.59-2.334 4.072-5.632 4.06-9.103 0-.827-.088-1.667-.25-2.483-.921-4.384-4.171-7.942-8.492-9.276a12.778 12.778 0 0 0-3.674-.543 12.458 12.458 0 0 0-8.356 3.199c-5.068 4.57-5.429 12.364-.822 17.391Zm23.087-2.977a14.886 14.886 0 0 1-2.391 4.064c1.905.31 3.835.482 5.765.507l-.074-4.188v-.222a46.5 46.5 0 0 1-3.3-.16Zm3.188-6.694a43.388 43.388 0 0 1-2.254-.087c.037.494.062.976.062 1.458 0 .963-.1 1.94-.286 2.89.821.062 1.68.099 2.552.111l-.074-4.372Zm.684-2.458h.125c2.042-2.224 7.534-3.335 12.876-3.483v-3.237c-.86.433-1.756.79-2.69 1.063-2.802.84-6.475 1.297-10.323 1.297-1.893 0-3.773-.124-5.641-.359a14.592 14.592 0 0 1 2.229 4.595c1.071.074 2.23.124 3.424.124Zm1.769 1.964.025.05c.074.258.81 1.11 3.486 1.877 2.478.704 5.741 1.099 9.178 1.099 3.55 0 6.911-.408 9.464-1.161 2.765-.815 3.387-1.668 3.4-1.853v-.012c-.013-.185-.635-1-3.288-1.791-2.54-.766-6.027-1.174-9.588-1.174h-.212c-3.313 0-6.463.37-8.879 1.05-2.578.717-3.462 1.532-3.574 1.865-.012.025-.012.037-.012.05Zm12.888 16.736c3.587 0 6.961-.432 9.477-1.21 2.627-.815 3.2-1.668 3.2-1.84h-.012v-3.706c-.835.42-1.706.778-2.615 1.05-2.79.84-6.438 1.297-10.286 1.297-3.412 0-6.737-.383-9.352-1.062a16.31 16.31 0 0 1-3.101-1.124l.062 3.582v.024c0 .186.548 1.013 3.176 1.816 2.49.754 5.852 1.173 9.451 1.173Zm12.677-10.301h.013v-3.285c-.872.444-1.781.802-2.727 1.062-2.778.815-6.389 1.26-10.174 1.26-3.674 0-7.173-.42-9.875-1.198a15.357 15.357 0 0 1-2.715-1.038l.05 2.84.012 1.038c.971 1.198 5.616 2.742 12.515 2.742 3.599 0 6.999-.42 9.551-1.185 2.69-.816 3.275-1.655 3.275-1.828 0-.07.02-.143.04-.214a.785.785 0 0 0 .035-.194Zm-45.116-6.213c2.105 0 3.96 1.383 4.533 3.397.71 2.483-.747 5.052-3.25 5.756v1.087c0 .68-.56 1.235-1.245 1.235a1.244 1.244 0 0 1-1.246-1.235v-1.075a4.699 4.699 0 0 1-3.487-4.508c0-.68.56-1.235 1.246-1.235.685 0 1.245.555 1.245 1.235 0 1.21.996 2.186 2.217 2.186 1.22 0 2.204-.988 2.204-2.199 0-1.21-.997-2.186-2.217-2.186a4.684 4.684 0 0 1-4.533-3.458c-.672-2.483.822-5.04 3.325-5.707v-.531c0-.68.56-1.235 1.245-1.235s1.246.556 1.246 1.235v.556a4.675 4.675 0 0 1 3.424 4.496c0 .68-.56 1.235-1.245 1.235a1.244 1.244 0 0 1-1.245-1.235c0-1.21-.997-2.199-2.217-2.199-1.22 0-2.204.976-2.216 2.199 0 1.21.996 2.186 2.216 2.186Z" fill="#1D3557"/></svg>
